X:0712
T:Lady Stopford's Reel.
M:C
L:1/8
Q:1/2=104
I: :: ||
Z:Jack Campin * www.campin.me.uk * 2009
K:D
a|gfed a2d'2|fedf ee/e/ ea| gfed                     (f//g//a3/) (b//c'//d'3/)|Agfe  d/d/d d2:|
  FAdA fAa>f|edef dB````BA| FAdA                      fAa>f                   |e>def d/d/d dA |
  FAdA fAa>f|gfed B3     g|(f//g//a3/) (b//c'//d'3/) (d//e//f3/) (f//g//a3/)  |A>gfe d/d/d d2|]
<end>
<start>
